src/lib/packages/icons/src/assets/filled/presentation-user.svg

<svg width="24" height="24" viewBox="0 0 24 24" fill="none" xmlns="http://www.w3.org/2000/svg">
<path d="M21 2.25H3C2.586 2.25 2.25 2.586 2.25 3C2.25 3.414 2.586 3.75 3 3.75H4V13C4 15.29 5.21 16.5 7.5 16.5H11.25V18.6L8.58002 20.38C8.24002 20.61 8.15 21.07 8.38 21.42C8.61 21.76 9.06998 21.85 9.41998 21.62L12 19.9L14.58 21.62C14.71 21.71 14.86 21.75 15 21.75C15.24 21.75 15.48 21.63 15.62 21.42C15.85 21.07 15.76 20.61 15.42 20.38L12.75 18.6V16.5H16.5C18.79 16.5 20 15.29 20 13V3.75H21C21.414 3.75 21.75 3.414 21.75 3C21.75 2.586 21.414 2.25 21 2.25ZM12.006 5C13.192 5 14.156 5.96402 14.156 7.15002C14.156 8.33602 13.192 9.30005 12.006 9.30005C10.82 9.30005 9.85602 8.33602 9.85602 7.15002C9.85602 5.96402 10.821 5 12.006 5ZM15.5 13.5C15.5 13.776 15.276 14 15 14H9C8.724 14 8.5 13.776 8.5 13.5V13.197C8.5 11.857 9.48097 10.5 11.358 10.5H12.642C14.518 10.5 15.5 11.856 15.5 13.197V13.5Z" fill="currentColor"/>
</svg>

<svg xmlns="http://www.w3.org/2000/svg" width="24" height="24" fill="none"><path fill="currentColor" d="M21 2.25H3a.75.75 0 0 0 0 1.5h1V13c0 2.29 1.21 3.5 3.5 3.5h3.75v2.1l-2.67 1.78c-.34.23-.43.69-.2 1.04.23.34.69.43 1.04.2L12 19.9l2.58 1.72a.751.751 0 0 0 .84-1.24l-2.67-1.78v-2.1h3.75c2.29 0 3.5-1.21 3.5-3.5V3.75h1a.75.75 0 0 0 0-1.5ZM12.006 5c1.186 0 2.15.964 2.15 2.15s-.964 2.15-2.15 2.15a2.152 2.152 0 0 1-2.15-2.15c0-1.186.965-2.15 2.15-2.15Zm3.494 8.5a.5.5 0 0 1-.5.5H9a.5.5 0 0 1-.5-.5v-.303c0-1.34.981-2.697 2.858-2.697h1.284c1.876 0 2.858 1.356 2.858 2.697v.303Z"/></svg>
